X: 24046
T: Lone Bush, The
R: hornpipe
M: 4/4
K: Gmajor
D>F|G>AB>d (3cBc d>B|G>AB>d c2 B>c|d>gf>a g>fd>c|B>GD>E =F>DC>E|
G>AB>d (3cBc d>B|G>AB>d c2 B>c|d>gf>d c>AF>G|1 A>GG>F G2:|2 A>GG>F G>AB>d||
g>d (3Bcd =f>cA>d|g>d (3Bcd =f2 (3de^f|g>be>a g>fd>e|(3fga g>e f>dc>A|
G>AB>d (3cBc d>B|G>AB>d c2 B>c|d>gf>d c>AF>G|1 A>GG>F G>AB>d:|2 A>GG>F G2||

